svg_80x80/sqlalchemy.svg

<svg viewBox="0 0 80 80" xmlns="http://www.w3.org/2000/svg">
<rect width="100%" height="100%" fill="#333333"/>
<path d="M9.88641 45.8873C9.45986 45.8216 8.36711 45.5577 7.46252 45.3189L5.81418 44.8733L6.65965 43.3733L7.50448 41.8732L6.82175 41.0569C5.85678 39.903 4.61083 37.373 4.60256 36.558C4.59366 34.6534 7.15422 31.8927 10.2958 30.4092C12.4552 29.3873 14.1709 29.3627 16.3221 30.3356L17.9438 31.0684L18.4135 30.4178C18.6691 30.063 18.8827 29.5935 18.8827 29.3873C18.8827 29.1811 19.0963 29 19.3524 29C19.6086 29 19.8216 29.0657 19.8216 29.1399C19.8216 29.3216 17.9355 33.92 17.816 34.0354C17.7645 34.0845 17.2521 33.8543 16.6717 33.5247C15.0329 32.593 12.9759 31.9749 11.3796 31.9338C7.66658 31.843 6.3774 35.3464 8.99835 38.4115L9.9201 39.4918L12.4381 37.5216C15.2637 35.3212 15.5879 35.2715 17.7906 36.739C20.2653 38.387 20.3079 40.8924 17.9177 43.5132C15.8009 45.8455 13.6249 46.4888 9.88577 45.8866L9.88641 45.8873ZM16.2204 43.3739C17.4492 42.4428 17.364 40.7199 16.0322 39.3518C14.3591 37.6376 13.8391 37.7118 10.894 40.0853C7.96599 42.4422 7.94883 42.3519 11.4489 43.4316C13.7616 44.1564 15.2128 44.1319 16.2204 43.3739ZM40.0015 52.4558C39.1643 52.1594 36.9108 51.2608 34.9821 50.4531C29.7752 48.2607 29.041 48.2196 27.4873 50.0412C27.1288 50.4617 26.7366 50.725 26.6254 50.6182C26.2923 50.2966 27.2827 48.7554 28.4778 47.7421C29.4504 46.9178 29.7746 46.8024 30.8508 46.9178C31.5335 46.9914 33.8042 47.7586 35.895 48.6155C40.6156 50.5519 41.9982 50.9644 43.7998 50.9644C45.9929 50.9644 47.12 49.4809 46.4283 47.5113C46.258 47.0166 46.3088 46.8515 46.6508 46.8515C47.2903 46.8515 47.6152 49.1593 47.1543 50.4862C46.9572 51.0546 46.3857 51.8623 45.8823 52.2662C45.1309 52.8762 44.6528 53.0082 43.2442 52.9996C42.297 52.9916 40.8381 52.7529 40.0015 52.4558ZM27.8376 45.4097C25.9 44.5357 24.15 42.8712 23.1424 40.9262C21.5297 37.8107 22.0242 35.8165 25.0806 33.1215C27.6494 30.8548 29.7498 29.9728 32.5754 29.9728C34.6147 29.9728 35.0501 30.0802 36.373 30.8628C39.5057 32.7342 40.2825 36.3026 38.3964 40.1921C36.1855 44.7585 31.5163 47.0583 27.8376 45.4097ZM34.3248 43.2419C35.7755 42.5496 36.7748 39.3518 36.3647 36.6979C35.8524 33.4265 31.2691 31.1924 27.9056 32.5777C24.4488 34.0035 24.3973 37.8027 27.795 41.2226C30.1674 43.6212 32.208 44.2473 34.3248 43.2419ZM40.9061 46.0112C40.9061 45.8707 41.4433 45.6239 42.1095 45.4668L43.3128 45.1784L43.569 40.9924C43.8506 36.3603 43.6453 31.8025 43.1253 31.193C42.9371 30.9782 42.3656 30.7143 41.845 30.5995C39.7282 30.1459 41.1362 29.8329 45.2421 29.8329C49.348 29.8329 50.6538 30.1214 48.699 30.5995C47.0176 31.0033 47.0087 31.0279 47.0087 37.6376C47.0087 41.3049 47.1454 44.0662 47.3418 44.4203C47.6152 44.915 48.0245 45.0218 49.5953 45.0218C52.8386 45.0218 53.9568 44.2804 54.8366 41.5356C55.101 40.712 55.7838 40.8605 55.5447 41.6928C55.4335 42.0794 55.2549 43.2579 55.1436 44.3295L54.9389 46.2666H47.9222C44.0636 46.2666 40.9061 46.1512 40.9061 46.0112Z" fill="white"/>
<path d="M56.8418 45.813C56.8418 45.5662 57.0897 45.3189 57.4991 45.1292C58.0458 44.8819 58.4037 44.3626 59.7011 41.9149C61.7582 38.042 65.0021 31.3906 65.3092 30.3932C65.5482 29.6352 65.5997 29.5941 66.4871 29.4953C66.9995 29.4376 67.426 29.4044 67.4343 29.421C67.4432 29.4376 68.152 30.937 69.014 32.7587C69.8677 34.5797 71.5834 38.0414 72.8294 40.448C74.9125 44.4946 75.1433 44.8573 75.8425 45.1863C76.2697 45.3845 76.6022 45.6896 76.6022 45.8707C76.6022 46.1591 76.2354 46.1923 73.0773 46.1923C69.9103 46.1923 69.5518 46.1591 69.5518 45.8627C69.5518 45.665 69.8251 45.4508 70.2599 45.3103C70.6617 45.1869 70.9687 44.9561 70.9687 44.7831C70.9687 44.6179 70.5504 43.5303 70.0381 42.3685L69.108 40.2504H62.057L61.3832 41.6841C60.1194 44.3712 60.094 45.0058 61.2719 45.3103C61.8612 45.4668 62.0233 45.5908 61.9546 45.8461C61.8784 46.1432 61.5707 46.1837 59.3515 46.1837C56.9696 46.2009 56.8418 46.1837 56.8418 45.813ZM68.3992 39.1456C68.5188 38.94 65.8641 33.3436 65.6168 33.2859C65.4376 33.2368 62.6889 38.7092 62.6889 39.121C62.6889 39.3273 68.2715 39.3518 68.3992 39.1456Z" fill="#CA2727"/>
</svg>

<svg xmlns="http://www.w3.org/2000/svg" viewBox="0 0 80 80">
  <rect width="100%" height="100%" fill="#333"/>
  <path fill="#fff" d="M9.9 45.9a34 34 0 0 1-2.4-.6L5.8 45l.9-1.5.8-1.5-.7-.8c-1-1.2-2.2-3.7-2.2-4.5 0-2 2.6-4.7 5.7-6.2 2.2-1 3.9-1 6 0l1.6.7.5-.7c.3-.3.5-.8.5-1 0-.2.2-.4.5-.4l.4.1-2 5-1.1-.6C15 32.5 13 32 11.4 32c-3.7 0-5 3.4-2.4 6.5l1 1 2.4-1.9c2.9-2.2 3.2-2.2 5.4-.8 2.5 1.7 2.5 4.2.1 6.8-2.1 2.3-4.3 3-8 2.4Zm6.3-2.5c1.2-1 1.2-2.7-.2-4-1.6-1.8-2.2-1.7-5.1.7-3 2.3-3 2.3.5 3.3 2.4.8 3.8.7 4.8 0Zm23.8 9c-.8-.2-3-1.1-5-2-5.2-2.1-6-2.2-7.5-.4-.4.5-.8.7-.9.6-.3-.3.7-1.8 1.9-2.9 1-.8 1.3-.9 2.4-.8.6 0 2.9.9 5 1.7 4.7 2 6.1 2.4 7.9 2.4 2.2 0 3.3-1.5 2.6-3.5-.1-.5 0-.6.3-.6.6 0 1 2.3.5 3.6-.2.6-.8 1.4-1.3 1.8-.8.6-1.2.7-2.7.7-.9 0-2.4-.2-3.2-.5Zm-12.2-7c-1.9-.9-3.7-2.5-4.7-4.5-1.6-3-1-5 2-7.8 2.5-2.2 4.6-3.1 7.5-3.1 2 0 2.5 0 3.8.9 3.1 1.8 3.9 5.4 2 9.3-2.2 4.6-6.9 6.9-10.6 5.2Zm6.5-2.2c1.5-.7 2.5-3.8 2-6.5-.4-3.3-5-5.5-8.4-4.1-3.5 1.4-3.5 5.2-.1 8.6 2.4 2.4 4.4 3 6.5 2ZM41 46c0-.1.5-.4 1.2-.5l1.2-.3.3-4.2c.3-4.6 0-9.2-.5-9.8-.2-.2-.7-.5-1.3-.6-2-.5-.7-.8 3.4-.8s5.5.3 3.5.8c-1.7.4-1.7.4-1.7 7 0 3.7.1 6.5.3 6.8.3.5.7.6 2.3.6 3.2 0 4.4-.7 5.2-3.5.3-.8 1-.6.7.2l-.4 2.6-.2 2h-7c-3.8 0-7-.1-7-.3Z"/>
  <path fill="#CA2727" d="M56.8 45.8c0-.2.3-.5.7-.7.5-.2.9-.7 2.2-3.2 2-3.9 5.3-10.5 5.6-11.5.2-.8.3-.8 1.2-.9h1l1.5 3.3 3.8 7.6c2.1 4 2.3 4.5 3 4.8.5.2.8.5.8.7 0 .3-.4.3-3.5.3-3.2 0-3.5 0-3.5-.3 0-.2.2-.4.7-.6.4-.1.7-.3.7-.5s-.4-1.3-1-2.4l-.9-2.1h-7l-.7 1.4c-1.3 2.7-1.3 3.3-.1 3.6.6.2.7.3.7.5-.1.3-.4.4-2.6.4-2.4 0-2.6 0-2.6-.4Zm11.6-6.7c.1-.2-2.5-5.8-2.8-5.8-.2 0-3 5.4-3 5.8 0 .2 5.7.3 5.8 0Z"/>
</svg>
